X:100
T:Carlisle Lasses
R:Strathspey
B:The Athole Collection
M:C
L:1/8
K:F
C|:~F>GA>F E>G F2|A>Bc>B A<c ~c2|d>fc>f B>gA>f|1 (3agf (3edc (3edB (3ABG:|2
(3agf (3def A<F ~F2||
B|A<c ~c>B A<f ~f2|e>g ~g>e f<a a2|b>ga>f g>ef>g|(3agf (3edc (3dcB (3ABG|
A<c ~c>B A<f ~f2|e<g ~g>e f<a a2|b>ga>f g>ef>g|(3agf (3efg af ~f||

